X:1
T:Why should I love? - Kirbye
T:James Gibb editions
T:#
%%score { 1 | 2 } 3 4 5
L:1/8
Q:1/4=108
M:4/4
K:F
V:1 treble nm="Soprano I"
V:2 treble 
V:3 treble nm="Alto" snm="A"
V:4 treble-8 nm="Tenor" snm="T"
V:5 bass nm="Bass" snm="B"
V:1
"^George Kirbye\n(1565-1634)""^Why should I love?" A4 F3 G | A4 z2 D2 | F3 E D4 | z4 z2 B2 | %4
w: Why should I|love, why|should I love|since|
[M:4/4] B3 A G2 F2 | E4 ^F2 A2- | A2 G4 ^F2 | G4 z2 d2 | B3 c d4 | z4 z2 d2 | d3 d c2 A2 | A4 A4 | %12
w: she doth prove un-|grate- ful, why|* should I|love, why|should I love,|since|she doth prove un-|grate- ful?|
 D2 !courtesy!=F4 (G2- | G2 AG FE) D2- | D2 G2 E4 | z8 | z2 A2 B4 | (c4 dcBA) | G2 G2 G4 | %19
w: Since for re\-|* * * * * ward|* I reap,||since for|re\- * * * *|ward I reap|
 ^F2 G2 A4 | =B4 G2 A2- | AA G2 E4 | ^F4 z4 | z4 z2 A2 | d6 c2 | B2 A4 G2 | A8- | A8 | z8 | %29
w: nought but dis-|dain, I reap|* nought but dis-|dain?|Love|thus to|be re- quit-|ed,|||
 z4 d4- | d4 ^c4 | d8 | A8 | z4 d2 _e2- | e2 d2 c2 A2 | B4 B2 B2- | B2 A2 B4 | z4 G2 G2- | %38
w: it|* is|hate-|ful,|And rea\-|* son would I|should not love|* in vain,|I should|
 GG F2 E4 | ^F4 D2 =F2- | F2 F2 F4 | z2 A2 B2 A2 | D3 E F3 G | A2 d2 ^c4 | d4 z2 d2 | c4 z2 c2 | %46
w: * not love in|vain. Yet all|* in vain,|yet all in|vain, when all is|out of sea-|son, For|love, for|
 B4 z2 B2 | B2 B2 A3 G | F2 G2 E4 | ^F2 A2 B2 A2 | D4 z2 A2 | B2 A2 D3 E | (F3 G A2) d2 | %53
w: love hath|no so- ci- e-|ty with rea-|son. Yet all in|vain, yet|all in vain, when|all * * is|
 (d3 c/B/ A2) G2 | A4 A4 | z2 B2 A4 | z2 G2 G4 | z2 d2 d2 d2 | c3 c[Q:1/4=106] A2[Q:1/4=103] B2 | %59
w: out * * * of|sea- son,|For love,|for love|hath no so-|ci- e- ty with|
[Q:1/4=101] A8[Q:1/4=100][Q:1/4=99][Q:1/4=97][Q:1/4=94] |[Q:1/4=92] !fermata!A8 |] %61
w: rea-|son.|
V:2
 z8 | z2 A2 F3 G | A4 z2 D2 | F3 E D2 d2 |[M:4/4] d3 d c2 A2 | A4 A4 | z4 z2 d2 | B3 c d4 | %8
w: |Why should I|love, why|should I love since|she doth prove un-|grate- ful,|why|should I love,|
 z4 z2 G2 | D3 E F2 B2 | B3 A G2 F2 | E4 ^F4 | z8 | z4 z2 A2 | B4 (c4 | dcBA) G2 c2 | A2 d2 d2 G2 | %17
w: why|should I love, since|she doth prove un-|grate- ful?||Since|for re\-|* * * * ward I|reap nought but dis-|
 G4 z2 B2 | c2 (d2 _edcB) | A2 G2 G2 ^F2 | G4 !courtesy!_B2 c2- | cc B2 A4 | A8 | z8 | z8 | d8- | %26
w: dain, since|for re\- * * * *|ward I reap dis-|dain, I reap|* nought but dis-|dain?|||it|
 d4 ^c4 | d8 | A8- | A8 | z4 A4- | A4 G4 | ^F8 | ^F4 G2 G2- | G2 G2 G2 ^F2 | G4 d2 _e2- | %36
w: * is|hate-|ful,||it|* is|hate-|ful, And rea\-|* son would I|should not love|
 e2 c2 d2 d2- | d2 B3 B G2 | A8 | A4 z4 | z2 A2 B2 A2 | D3 E (F3 G | A2) d2 (d3 c/B/ | A2) G2 A4 | %44
w: * in vain, I|* should not love|in|vain.|Yet all in|vain, when all *|* is out * *|* of sea-|
 A4 z2 B2 | A4 z2 G2 | G4 z2 d2 | d2 d2 c3 c | A2 B2 A4 | A4 z2 D2- | D2 F4 F2 | F4 z2 A2 | %52
w: son, For|love, for|love hath|no so- ci- e-|ty with rea-|son. Yet|* all in|vain, yet|
 B2 A2 D3 E | F3 G A2 d2 | ^c4 d4 | z2 d2 !courtesy!=c4 | z2 c2 B4 | z2 B2 B2 B2 | A3 G F2 G2 | %59
w: all in vain when|all is out of|sea- son,|For love,|for love|hath no so-|ci- e- ty with|
 (GFED E4) | !fermata!^F8 |] %61
w: rea\- * * * *|son.|
V:3
 z4 D4 | F3 E D4 | z8 | z4 z2 G2 |[M:4/4] F3 F E2 D2 | ^C4 D4 | z2 G,2 B,3 A, | G,8 | z4 z2 D2 | %9
w: Why|should I love||since|she doth prove un-|grate- ful,|why should I|love,|why|
 B,3 C D2 D2 | D3 F E2 D2 | ^C4 D4 | z4 z2 D2 | E4 (F4 | GFED) C4 | z2 D2 E4 | (F4 GFED) | %17
w: should I love since|she doth prove un-|grate- ful?|Since|for re\-|* * * * ward,|since for|re\- * * * *|
 C2 G,2 B,4 | z2 G,2 G,4 | D8 | D4 D2 F2- | FF D2 ^C4 | D8 | z8 | D2 F4 E2 | D2 C2 B,4 | A,8 | %27
w: ward I reap|nought but|dis-|dain, I reap|* nought but dis-|dain?||love thus to|be re- quit-|ed,|
 z4 F4- | F4 E4 | D4 A,4 | z4 A,4 | F,4 B,4 | A,8 | A,4 =B,2 C2- | C2 D2 _E2 D2 | D4 D2 G2- | %36
w: it|* is|hate- ful,|Oh|it is|hate-|ful, And rea\-|* son would I|should not love|
 G2 F2 F4 | z2 D2 D3 D | (^C2 D4) C2 | D4 z2 A2 | B2 A2 D4 | z8 | z2 A2 A3 (G/F/) | E2 D2 E4 | %44
w: * in vain,|I should not|love * in|vain. Yet|all in vain,||when all is *|out of sea-|
 D2 D2 F4 | z2 C2 _E4 | z2 B,2 D2 F2 | F2 F2 F3 !courtesy!=E | D2 D2 ^C4 | D8 | z2 A2 B2 A2 | %51
w: son, For love,|for love,|for love hath|no so- ci- e-|ty with rea-|son|Yet all in|
 D4 z4 | z4 z2 A2 | A3 (G/F/) E2 D2 | E4 D2 D2 | F4 z2 C2 | _E4 z2 B,2 | D2 F2 F2 F2 | %58
w: vain,|when|all is * out of|sea- son, For|love, for|love, for|love hath no so-|
 F3 E D2 D2- | D2 (^C=B, C4) | !fermata!D8 |] %61
w: ci- e- ty with|* rea\- * *|son.|
V:4
 z8 | z8 | z2 d2 B3 c | d4 z2 G2 |[M:4/4][K:treble-8] B3 B c2 d2 | A4 D4- | D4 z4 | z2 G2 B3 A | %8
w: ||Why should I|love since|she doth prove un-|grate- ful,||why should I|
 G8 | z4 z2 G2 | F3 F c2 F2 | A4 A4 | z2 A2 B4 | (c4 dcBA) | G2 G2 A3 c | (BAGF E4) | z4 z2 D2 | %17
w: love,|since|she doth prove un-|grate- ful?|Since for|re\- * * * *|ward I reap dis-|dain, * * * *|since|
 E4 F4 | G4 c2 c2- | c2 B2 A2 A2 | G4 G2 F2- | FF G2 A4 | D4 z2 A2 | c4 B2 A2- | A2 D2 A4 | %25
w: for re-|ward I reap|* nought but dis|dain, I reap|* nought but dis-|dain? Love|thus to be|* re- quit-|
 D4 z2 d2 | f6 e2 | d2 A2 d4- | d4 A4 | z4 f4- | f4 e4 | d8 | d8 | z4 G2 G2- | %34
w: ed, love|thus to|be re- quit\-|* ed,|it|* is|hate-|ful,|And rea\-|
 G2 !courtesy!_B2 A2 A2 | G4 B2 G2 | c4 B2 d2 | d3 d G4 | z8 | z2 A2 B2 A2 | D4 D4 | D6 D2 | D8 | %43
w: * son would I|should not love|in vain, not|love in vain.||Yet all in|vain, yet|all in|vain,|
 z8 | z2 A2 d4 | z2 A2 c4 | z2 G2 B2 B2 | B2 F2 A3 E | F2 D2 A4 | A4 z2 A2 | B2 A2 D4- | D4 D4 | %52
w: |For love,|for love,|for love hath|no so- ci- e-|ty with rea-|son. Yet|all in vain,|* yet|
 D6 D2 | D4 z4 | z4 z2 A2 | d4 z2 A2 | c4 z2 G2 | B2 B2 B2 F2 | A3 E F2 D2 | A8 | !fermata!A8 |] %61
w: all in|vain,|For|love, for|love, for|love hath no so-|ci- e- ty with|rea-|son.|
V:5
 z8 | z8 | z8 | z8 |[M:4/4] z8 | z4 z2 D,2 | B,,3 C, D,4 | z8 | z2 G,2 B,3 A, | G,4 z2 G,,2 | %10
w: |||||Why|should I love,||why should I|love, since|
 B,,3 B,, C,2 D,2 | A,,4 D,4- | D,4 z4 | z8 | z4 z2 A,,2 | B,,4 (C,4- | D,C,B,,A,,) G,,4 | %17
w: she doth prove un-|grate- ful?|||Since|for re\-|* * * * ward|
 C,4 B,,4 | _E,4 C,4 | D,8 | G,,4 z4 | z8 | z4 D,2 F,2- | F,2 E,2 D,2 C,2 | B,,4 A,,4 | z8 | z8 | %27
w: I reap|nought but|dis-|dain?||Love thus|* to be re-|quit- ed,|||
 D,8- | D,4 ^C,4 | D,8 | A,,8 | B,,6 C,2 | D,8 | D,4 G,,2 C,2- | C,2 B,,2 C,2 D,2 | %35
w: it|* is|hate-|ful,|it is|hate-|ful, And rea\-|* son would I|
 G,,4 G,2 _E,2- | E,2 F,2 B,,2 B,2- | B,2 G,3 G, B,2 | A,8 | D,8- | D,4 z2 A,2 | B,2 A,2 D,3 E, | %42
w: should not love|* in vain, I|* should not love|in|vain.|* Yet|all in vain, when|
 F,3 G, A,4- | A,2 B,2 A,4 | D,4 z2 D,2 | F,4 z2 C,2 | _E,4 z2 B,,2 | B,,2 B,,2 F,3 C, | %48
w: all is out|* of sea-|son, For|love, for|love hath|no so- ci- e-|
 D,2 G,,2 A,,4 | D,8- | D,8 | z2 A,2 B,2 A,2 | D,3 E, F,3 G, | A,6 B,2 | A,4 D,4 | z2 D,2 F,4 | %56
w: ty with rea-|son||Yet all in|vain when all is|out of|sea- son,|for love,|
 z2 C,2 _E,4 | z2 B,,2 B,,2 B,,2 | F,3 C, D,2 G,,2 | A,,8 | !fermata!D,8 |] %61
w: for love|hath no so-|ci- e- ty with|rea-|son.|

